X:2293
T:Baase Illiam Dhone 
C:Traditional
O:Isle of Man
B:Mona Melodies No 1 
Z:Clague collection
B:Kiaull Vannin #293 
N:Also collected by A.W.Moore
M:6/4
L:1/4 
K:D 
A|Add dcd|eaa a2f|gfg fef|dBc d2 f/g/|
add cde|fBB B2A|A2B BAB|cdd d2||

